!!!OTL: "Der verstellte Raeuber" ES RITT EIN RITTER WOHL DURCH DAS RIED
!!!ARE: Europa, Mitteleuropa, Deutschland, Schwaben
!!!SCT: Z1095
!!!YEM: Copyright 1995, estate of Helmut Schaffrath.
**kern
*ICvox
*Ivox
!! Mixed meters:  4/4; 6/8
*M4/4
*k[f#]
*G:
{8g
8g
8a
=1
4b
4a
4b
8cc
8b
=2
*M6/8
2a
4r}
=3
{8b
8a
=4
*M4/4
4g
8g
8f#
4g
4b
=5
*M6/8
4a
8b
8a
4g}
=6
{4a
=7
8f#
8e
8f#
8d
8e
8f#
=8
8.g
16a
8b
4a}
{8b
=9
4e
8e
8d
8g
8g
=10
4a
8g}
==
!!!AGN: Romanze, Ballade, Tod
!!!ONB: ESAC (Essen Associative Code) Database: ZUCCAL
!!!AMT: irregular
!!!AIN: vox
!!!EED: Helmut Schaffrath
!!!EEV: 1.0
*-
